X:291
T:The Skibbereen lasses
R:Reel
O:Ireland
B:O'Neill's 1469
S:O'Neill's 1469
Z:Transcription:Bob Safranek, arrangement, chords:Mike Long
M:C|
L:1/8
K:D
"A"e2cA cdef|"G"gedc BcdB|"A"e2cA cdef|"G"gedB "A"{c}BAA2|\
"A"e2cA cdef|
"G"gedc BcdB|"A"cAcd edef|"G"gedB "A"{c}BAA2|]\
"A"cAce "(D)"a2ef|"G"gedc BcdB|
"A"eA~A2 a2ef|"G"gedB "A"{c}BAA2|\
"A"cAce "(D)"a2ef|"G"gedc BcdB|"A"A2 (3(Bcd) eaaf|"G"gedB "(A)"{c}BAA2|]
